X: 83
T: BIDDY THE DARLING
%R: jig
B: Jean White "100 Popular Hornpipes, Reels, Jigs and Country Dances", Boston 1880 p.35
F: http://www.loc.gov/resource/sm1880.09124.0#seq-1
Z: 2014 John Chambers <jc:trillian.mit.edu>
M: 6/8
L: 1/8
K: D
% - - - - - - - - - - - - - - - - - - - - - - - - - - - - -
|:\
D2F A2d | f2d A2F | G2B e2d | cBA GFE |\
D2F A2d | f2d A2F | Ged cBc | d3- d2z :|
|:\
A2c e2c | A2d f2d | A2e g2e | fed cBA |\
d2A e2A | f2A g2A | fed cBc | d3- d2z :|
% - - - - - - - - - - - - - - - - - - - - - - - - - - - - -

%%sep 1 1 500
%%sep 1 1 500
